public/icons/x.svg

<svg width="16" height="16" viewBox="0 0 16 16" fill="none" xmlns="http://www.w3.org/2000/svg"><path fill-rule="evenodd" clip-rule="evenodd" d="M1.59961 2h4.2l2.98737 4.16842L12.3996 2h1.6L9.51119 7.17895 14.3996 14h-4.2L7.21224 9.83158 3.59961 14h-1.6l4.48842-5.17895L1.59961 2ZM10.816 12.8 3.93596 3.2h1.2473l6.88004 9.6H10.816Z" fill="#E6E6E6"/></svg>

<svg width="16" height="16" viewBox="0 0 16 16" fill="none" xmlns="http://www.w3.org/2000/svg">
<path fill-rule="evenodd" clip-rule="evenodd" d="M1.59961 2H5.79961L8.78698 6.16842L12.3996 2H13.9996L9.51119 7.17895L14.3996 14H10.1996L7.21224 9.83158L3.59961 14H1.99961L6.48803 8.82105L1.59961 2ZM10.816 12.8L3.93596 3.2H5.18326L12.0633 12.8H10.816Z" fill="#E6E6E6"/>
</svg>
